dist/static/img/svg/telegram.svg

<svg width="32" height="32" viewBox="0 0 32 32" fill="none" xmlns="http://www.w3.org/2000/svg">
<g clip-path="url(#clip0_578_3815)">
<path fill-rule="evenodd" clip-rule="evenodd" d="M16 0C7.164 0 0 7.164 0 16C0 24.836 7.164 32 16 32C24.836 32 32 24.836 32 16C32 7.164 24.836 0 16 0ZM23.416 10.8813C23.176 13.4107 22.1333 19.5507 21.604 22.384C21.38 23.584 20.9373 23.9853 20.5107 24.024C19.5813 24.1093 18.876 23.4093 17.976 22.82C16.568 21.8973 15.772 21.3227 14.4053 20.4213C12.8253 19.38 13.8493 18.808 14.7493 17.8733C14.9853 17.628 19.0787 13.904 19.1587 13.5667C19.168 13.524 19.1787 13.3667 19.084 13.284C18.9893 13.2013 18.852 13.2293 18.7533 13.252C18.612 13.284 16.3627 14.7707 12.004 17.712C11.3653 18.1507 10.7867 18.364 10.268 18.3533C9.69733 18.3413 8.59867 18.0307 7.78133 17.764C6.78 17.4387 5.98267 17.2653 6.052 16.7133C6.088 16.4253 6.484 16.1307 7.24133 15.8293C11.9053 13.7973 15.016 12.4573 16.572 11.8093C21.016 9.96133 21.9387 9.64 22.5413 9.62933C23.296 9.61867 23.4773 10.2413 23.416 10.8813Z" fill="#1C93CF"/>
</g>
<defs>
<clipPath id="clip0_578_3815">
<rect width="32" height="32" fill="white"/>
</clipPath>
</defs>
</svg>

<svg width="32" height="32" viewBox="0 0 32 32" fill="none" xmlns="http://www.w3.org/2000/svg"><g clip-path="url(#clip0_578_3815)"><path fill-rule="evenodd" clip-rule="evenodd" d="M16 0C7.164 0 0 7.164 0 16s7.164 16 16 16 16-7.164 16-16S24.836 0 16 0zm7.416 10.881c-.24 2.53-1.283 8.67-1.812 11.503-.224 1.2-.667 1.601-1.093 1.64-.93.085-1.635-.615-2.535-1.204-1.408-.923-2.204-1.497-3.57-2.399-1.58-1.041-.557-1.613.343-2.548.236-.245 4.33-3.969 4.41-4.306.009-.043.02-.2-.075-.283-.095-.083-.232-.055-.33-.032-.142.032-2.391 1.519-6.75 4.46-.639.439-1.217.652-1.736.641-.57-.012-1.67-.322-2.487-.589-1.001-.325-1.798-.499-1.729-1.05.036-.289.432-.583 1.19-.885 4.663-2.032 7.774-3.372 9.33-4.02 4.444-1.848 5.367-2.169 5.97-2.18.754-.01.935.612.874 1.252z" fill="#1C93CF"/></g><defs><clipPath id="clip0_578_3815"><path fill="#fff" d="M0 0h32v32H0z"/></clipPath></defs></svg>
